X:64
T:Minor Slip
T:Throw The Beetle At Her
R:hop jig
H:Also in E minor #69
Z:id:hn-slipjig-64
M:9/8
L:1/8
K:Bm
f2B BAB g2e | f2B B2d cBA | f2B BAB ~g3 |1 efg aed cde :|2 efg aed cBA |
|: d2f fdf fef | d2f fdf ecA | d2f fdf fef | efg aed cBA :|

